app/assets/images/icons/active/contacts.svg

<?xml version="1.0" encoding="UTF-8" standalone="no"?>
<svg width="32px" height="232px" viewBox="0 0 32 232" version="1.1" xmlns="http://www.w3.org/2000/svg" xmlns:xlink="http://www.w3.org/1999/xlink" xmlns:sketch="http://www.bohemiancoding.com/sketch/ns">
    <title>contacts</title>
    <description>Created with Sketch (http://www.bohemiancoding.com/sketch)</description>
    <defs></defs>
    <g id="Graphics" stroke="none" stroke-width="1" fill="none" fill-rule="evenodd" sketch:type="MSPage">
        <path d="M26.7949382,124 L9.28587863,124 C7.51624964,124 6.08484326,125.428 6.08484326,127.186 L6.08484326,127.768 L6.97771067,127.768 C9.13085994,127.768 10.8723037,129.502 10.8723037,131.639 C10.8723037,133.776 9.13085994,135.508 6.97771067,135.508 L6.08484326,135.508 L6.08484326,136.817 L6.97771067,136.817 C9.13085994,136.817 10.8723037,138.551 10.8723037,140.684 C10.8723037,142.823 9.13085994,144.559 6.97771067,144.559 L6.08484326,144.559 L6.08484326,145.813 C6.08484326,147.571 7.51624964,149 9.28587863,149 L26.7949382,149 C28.5645672,149 30,147.571 30,145.813 L30,127.186 C30,125.428 28.5645672,124 26.7949382,124 L26.7949382,124 L26.7949382,124 L26.7949382,124 Z M13.6223756,142.195 C13.6223756,142.195 13.6072764,140.496 14.1236698,139.832 C14.4246477,139.547 15.8953121,138.572 17.4877768,138.338 C19.0731953,138.104 18.5376762,136.358 18.5890135,136.381 C18.6443773,136.411 18.5809606,136.006 18.5809606,136.006 C18.5809606,136.006 17.7001726,134.906 17.7102387,133.905 C17.7283578,132.91 17.7102387,132.26 17.7102387,132.26 C17.7102387,132.26 17.6850733,129.893 19.3067299,129.893 L20.3052919,130.33 C21.7658901,130.33 21.8665516,132.26 21.8665516,132.26 L21.8665516,134.051 C21.8665516,134.051 21.8705781,135.412 20.9545585,135.928 C20.9545585,135.928 20.8911418,136.329 20.9444924,136.301 C20.9958297,136.276 20.7854472,138.104 22.3718723,138.338 C23.9623238,138.572 25.1420765,139.547 25.4430544,139.832 C25.7430256,140.116 25.9443486,142.195 25.9443486,142.195 L13.6223756,142.195 Z M4.46922634,134.092 L6.97771067,134.092 C8.34570032,134.092 9.44693701,132.996 9.44693701,131.639 C9.44693701,130.282 8.34570032,129.184 6.97771067,129.184 L4.46922634,129.184 C3.10425654,129.184 2,130.282 2,131.639 C2,132.996 3.10425654,134.092 4.46922634,134.092 Z M9.44693701,140.684 C9.44693701,139.329 8.34570032,138.231 6.97771067,138.231 L4.46922634,138.231 C3.10425654,138.231 2,139.329 2,140.684 C2,142.043 3.10425654,143.143 4.46922634,143.143 L6.97771067,143.143 C8.34570032,143.143 9.44693701,142.043 9.44693701,140.684 Z M9.44693701,140.684" id="contacts--white" fill="#206FAC" sketch:type="MSShapeGroup"></path>
        <path d="M26.7949382,84 L9.28587863,84 C7.51624964,84 6.08484326,85.428 6.08484326,87.186 L6.08484326,87.768 L6.97771067,87.768 C9.13085994,87.768 10.8723037,89.502 10.8723037,91.639 C10.8723037,93.776 9.13085994,95.508 6.97771067,95.508 L6.08484326,95.508 L6.08484326,96.817 L6.97771067,96.817 C9.13085994,96.817 10.8723037,98.551 10.8723037,100.684 C10.8723037,102.823 9.13085994,104.559 6.97771067,104.559 L6.08484326,104.559 L6.08484326,105.813 C6.08484326,107.571 7.51624964,109 9.28587863,109 L26.7949382,109 C28.5645672,109 30,107.571 30,105.813 L30,87.186 C30,85.428 28.5645672,84 26.7949382,84 L26.7949382,84 L26.7949382,84 L26.7949382,84 Z M13.6223756,102.195 C13.6223756,102.195 13.6072764,100.496 14.1236698,99.832 C14.4246477,99.547 15.8953121,98.572 17.4877768,98.338 C19.0731953,98.104 18.5376762,96.358 18.5890135,96.381 C18.6443773,96.411 18.5809606,96.006 18.5809606,96.006 C18.5809606,96.006 17.7001726,94.906 17.7102387,93.905 C17.7283578,92.91 17.7102387,92.26 17.7102387,92.26 C17.7102387,92.26 17.6850733,89.893 19.3067299,89.893 L20.3052919,90.33 C21.7658901,90.33 21.8665516,92.26 21.8665516,92.26 L21.8665516,94.051 C21.8665516,94.051 21.8705781,95.412 20.9545585,95.928 C20.9545585,95.928 20.8911418,96.329 20.9444924,96.301 C20.9958297,96.276 20.7854472,98.104 22.3718723,98.338 C23.9623238,98.572 25.1420765,99.547 25.4430544,99.832 C25.7430256,100.116 25.9443486,102.195 25.9443486,102.195 L13.6223756,102.195 Z M4.46922634,94.092 L6.97771067,94.092 C8.34570032,94.092 9.44693701,92.996 9.44693701,91.639 C9.44693701,90.282 8.34570032,89.184 6.97771067,89.184 L4.46922634,89.184 C3.10425654,89.184 2,90.282 2,91.639 C2,92.996 3.10425654,94.092 4.46922634,94.092 Z M9.44693701,100.684 C9.44693701,99.329 8.34570032,98.231 6.97771067,98.231 L4.46922634,98.231 C3.10425654,98.231 2,99.329 2,100.684 C2,102.043 3.10425654,103.143 4.46922634,103.143 L6.97771067,103.143 C8.34570032,103.143 9.44693701,102.043 9.44693701,100.684 Z M9.44693701,100.684" id="contacts--subdued-grey" fill="#FFFFFF" sketch:type="MSShapeGroup"></path>
        <path d="M26.7949382,44 L9.28587863,44 C7.51624964,44 6.08484326,45.428 6.08484326,47.186 L6.08484326,47.768 L6.97771067,47.768 C9.13085994,47.768 10.8723037,49.502 10.8723037,51.639 C10.8723037,53.776 9.13085994,55.508 6.97771067,55.508 L6.08484326,55.508 L6.08484326,56.817 L6.97771067,56.817 C9.13085994,56.817 10.8723037,58.551 10.8723037,60.684 C10.8723037,62.823 9.13085994,64.559 6.97771067,64.559 L6.08484326,64.559 L6.08484326,65.813 C6.08484326,67.571 7.51624964,69 9.28587863,69 L26.7949382,69 C28.5645672,69 30,67.571 30,65.813 L30,47.186 C30,45.428 28.5645672,44 26.7949382,44 L26.7949382,44 L26.7949382,44 L26.7949382,44 Z M13.6223756,62.195 C13.6223756,62.195 13.6072764,60.496 14.1236698,59.832 C14.4246477,59.547 15.8953121,58.572 17.4877768,58.338 C19.0731953,58.104 18.5376762,56.358 18.5890135,56.381 C18.6443773,56.411 18.5809606,56.006 18.5809606,56.006 C18.5809606,56.006 17.7001726,54.906 17.7102387,53.905 C17.7283578,52.91 17.7102387,52.26 17.7102387,52.26 C17.7102387,52.26 17.6850733,49.893 19.3067299,49.893 L20.3052919,50.33 C21.7658901,50.33 21.8665516,52.26 21.8665516,52.26 L21.8665516,54.051 C21.8665516,54.051 21.8705781,55.412 20.9545585,55.928 C20.9545585,55.928 20.8911418,56.329 20.9444924,56.301 C20.9958297,56.276 20.7854472,58.104 22.3718723,58.338 C23.9623238,58.572 25.1420765,59.547 25.4430544,59.832 C25.7430256,60.116 25.9443486,62.195 25.9443486,62.195 L13.6223756,62.195 Z M4.46922634,54.092 L6.97771067,54.092 C8.34570032,54.092 9.44693701,52.996 9.44693701,51.639 C9.44693701,50.282 8.34570032,49.184 6.97771067,49.184 L4.46922634,49.184 C3.10425654,49.184 2,50.282 2,51.639 C2,52.996 3.10425654,54.092 4.46922634,54.092 Z M9.44693701,60.684 C9.44693701,59.329 8.34570032,58.231 6.97771067,58.231 L4.46922634,58.231 C3.10425654,58.231 2,59.329 2,60.684 C2,62.043 3.10425654,63.143 4.46922634,63.143 L6.97771067,63.143 C8.34570032,63.143 9.44693701,62.043 9.44693701,60.684 Z M9.44693701,60.684" id="contacts--body-grey" fill="#67737B" sketch:type="MSShapeGroup"></path>
        <path d="M26.7949382,4 L9.28587863,4 C7.51624964,4 6.08484326,5.428 6.08484326,7.186 L6.08484326,7.768 L6.97771067,7.768 C9.13085994,7.768 10.8723037,9.502 10.8723037,11.639 C10.8723037,13.776 9.13085994,15.508 6.97771067,15.508 L6.08484326,15.508 L6.08484326,16.817 L6.97771067,16.817 C9.13085994,16.817 10.8723037,18.551 10.8723037,20.684 C10.8723037,22.823 9.13085994,24.559 6.97771067,24.559 L6.08484326,24.559 L6.08484326,25.813 C6.08484326,27.571 7.51624964,29 9.28587863,29 L26.7949382,29 C28.5645672,29 30,27.571 30,25.813 L30,7.186 C30,5.428 28.5645672,4 26.7949382,4 L26.7949382,4 L26.7949382,4 L26.7949382,4 Z M13.6223756,22.195 C13.6223756,22.195 13.6072764,20.496 14.1236698,19.832 C14.4246477,19.547 15.8953121,18.572 17.4877768,18.338 C19.0731953,18.104 18.5376762,16.358 18.5890135,16.381 C18.6443773,16.411 18.5809606,16.006 18.5809606,16.006 C18.5809606,16.006 17.7001726,14.906 17.7102387,13.905 C17.7283578,12.91 17.7102387,12.26 17.7102387,12.26 C17.7102387,12.26 17.6850733,9.893 19.3067299,9.893 L20.3052919,10.33 C21.7658901,10.33 21.8665516,12.26 21.8665516,12.26 L21.8665516,14.051 C21.8665516,14.051 21.8705781,15.412 20.9545585,15.928 C20.9545585,15.928 20.8911418,16.329 20.9444924,16.301 C20.9958297,16.276 20.7854472,18.104 22.3718723,18.338 C23.9623238,18.572 25.1420765,19.547 25.4430544,19.832 C25.7430256,20.116 25.9443486,22.195 25.9443486,22.195 L13.6223756,22.195 Z M4.46922634,14.092 L6.97771067,14.092 C8.34570032,14.092 9.44693701,12.996 9.44693701,11.639 C9.44693701,10.282 8.34570032,9.184 6.97771067,9.184 L4.46922634,9.184 C3.10425654,9.184 2,10.282 2,11.639 C2,12.996 3.10425654,14.092 4.46922634,14.092 Z M9.44693701,20.684 C9.44693701,19.329 8.34570032,18.231 6.97771067,18.231 L4.46922634,18.231 C3.10425654,18.231 2,19.329 2,20.684 C2,22.043 3.10425654,23.143 4.46922634,23.143 L6.97771067,23.143 C8.34570032,23.143 9.44693701,22.043 9.44693701,20.684 Z M9.44693701,20.684" id="contacts--title-grey" fill="#3A434E" sketch:type="MSShapeGroup"></path>
    </g>
</svg>

<svg width="32" height="232" viewBox="0 0 32 232" xmlns="http://www.w3.org/2000/svg" xmlns:sketch="http://www.bohemiancoding.com/sketch/ns"><title>contacts</title><g sketch:type="MSPage" fill="none"><path d="M26.795 124h-17.509c-1.77 0-3.201 1.428-3.201 3.186v.582h.893c2.153 0 3.895 1.734 3.895 3.871s-1.741 3.869-3.895 3.869h-.893v1.309h.893c2.153 0 3.895 1.734 3.895 3.867 0 2.139-1.741 3.875-3.895 3.875h-.893v1.254c0 1.758 1.431 3.187 3.201 3.187h17.509c1.77 0 3.205-1.429 3.205-3.187v-18.627c0-1.758-1.435-3.186-3.205-3.186zm-13.173 18.195s-.015-1.699.501-2.363c.301-.285 1.772-1.26 3.364-1.494 1.585-.234 1.05-1.98 1.101-1.957.055.03-.008-.375-.008-.375s-.881-1.1-.871-2.101c.018-.995 0-1.645 0-1.645s-.025-2.367 1.596-2.367l.999.437c1.461 0 1.561 1.93 1.561 1.93v1.791s.004 1.361-.912 1.877c0 0-.063.401-.01.373.051-.025-.159 1.803 1.427 2.037 1.59.234 2.77 1.209 3.071 1.494.3.284.501 2.363.501 2.363h-12.322zm-9.153-8.103h2.508c1.368 0 2.469-1.096 2.469-2.453 0-1.357-1.101-2.455-2.469-2.455h-2.508c-1.365 0-2.469 1.098-2.469 2.455s1.104 2.453 2.469 2.453zm4.978 6.592c0-1.355-1.101-2.453-2.469-2.453h-2.508c-1.365 0-2.469 1.098-2.469 2.453 0 1.359 1.104 2.459 2.469 2.459h2.508c1.368 0 2.469-1.1 2.469-2.459zm0 0" fill="#206FAC" sketch:type="MSShapeGroup"/><path d="M26.795 84h-17.509c-1.77 0-3.201 1.428-3.201 3.186v.582h.893c2.153 0 3.895 1.734 3.895 3.871s-1.741 3.869-3.895 3.869h-.893v1.309h.893c2.153 0 3.895 1.734 3.895 3.867 0 2.139-1.741 3.875-3.895 3.875h-.893v1.254c0 1.758 1.431 3.187 3.201 3.187h17.509c1.77 0 3.205-1.429 3.205-3.187v-18.627c0-1.758-1.435-3.186-3.205-3.186zm-13.173 18.195s-.015-1.699.501-2.363c.301-.285 1.772-1.26 3.364-1.494 1.585-.234 1.05-1.98 1.101-1.957.055.03-.008-.375-.008-.375s-.881-1.1-.871-2.101c.018-.995 0-1.645 0-1.645s-.025-2.367 1.596-2.367l.999.437c1.461 0 1.561 1.93 1.561 1.93v1.791s.004 1.361-.912 1.877c0 0-.063.401-.01.373.051-.025-.159 1.803 1.427 2.037 1.59.234 2.77 1.209 3.071 1.494.3.284.501 2.363.501 2.363h-12.322zm-9.153-8.103h2.508c1.368 0 2.469-1.096 2.469-2.453 0-1.357-1.101-2.455-2.469-2.455h-2.508c-1.365 0-2.469 1.098-2.469 2.455s1.104 2.453 2.469 2.453zm4.978 6.592c0-1.355-1.101-2.453-2.469-2.453h-2.508c-1.365 0-2.469 1.098-2.469 2.453 0 1.359 1.104 2.459 2.469 2.459h2.508c1.368 0 2.469-1.1 2.469-2.459zm0 0" fill="#fff" sketch:type="MSShapeGroup"/><path d="M26.795 44h-17.509c-1.77 0-3.201 1.428-3.201 3.186v.582h.893c2.153 0 3.895 1.734 3.895 3.871s-1.741 3.869-3.895 3.869h-.893v1.309h.893c2.153 0 3.895 1.734 3.895 3.867 0 2.139-1.741 3.875-3.895 3.875h-.893v1.254c0 1.758 1.431 3.187 3.201 3.187h17.509c1.77 0 3.205-1.429 3.205-3.187v-18.627c0-1.758-1.435-3.186-3.205-3.186zm-13.173 18.195s-.015-1.699.501-2.363c.301-.285 1.772-1.26 3.364-1.494 1.585-.234 1.05-1.98 1.101-1.957.055.03-.008-.375-.008-.375s-.881-1.1-.871-2.101c.018-.995 0-1.645 0-1.645s-.025-2.367 1.596-2.367l.999.437c1.461 0 1.561 1.93 1.561 1.93v1.791s.004 1.361-.912 1.877c0 0-.063.401-.01.373.051-.025-.159 1.803 1.427 2.037 1.59.234 2.77 1.209 3.071 1.494.3.284.501 2.363.501 2.363h-12.322zm-9.153-8.103h2.508c1.368 0 2.469-1.096 2.469-2.453 0-1.357-1.101-2.455-2.469-2.455h-2.508c-1.365 0-2.469 1.098-2.469 2.455s1.104 2.453 2.469 2.453zm4.978 6.592c0-1.355-1.101-2.453-2.469-2.453h-2.508c-1.365 0-2.469 1.098-2.469 2.453 0 1.359 1.104 2.459 2.469 2.459h2.508c1.368 0 2.469-1.1 2.469-2.459zm0 0" fill="#67737B" sketch:type="MSShapeGroup"/><path d="M26.795 4h-17.509c-1.77 0-3.201 1.428-3.201 3.186v.582h.893c2.153 0 3.895 1.734 3.895 3.871s-1.741 3.869-3.895 3.869h-.893v1.309h.893c2.153 0 3.895 1.734 3.895 3.867 0 2.139-1.741 3.875-3.895 3.875h-.893v1.254c0 1.758 1.431 3.187 3.201 3.187h17.509c1.77 0 3.205-1.429 3.205-3.187v-18.627c0-1.758-1.435-3.186-3.205-3.186zm-13.173 18.195s-.015-1.699.501-2.363c.301-.285 1.772-1.26 3.364-1.494 1.585-.234 1.05-1.98 1.101-1.957.055.03-.008-.375-.008-.375s-.881-1.1-.871-2.101c.018-.995 0-1.645 0-1.645s-.025-2.367 1.596-2.367l.999.437c1.461 0 1.561 1.93 1.561 1.93v1.791s.004 1.361-.912 1.877c0 0-.063.401-.01.373.051-.025-.159 1.803 1.427 2.037 1.59.234 2.77 1.209 3.071 1.494.3.284.501 2.363.501 2.363h-12.322zm-9.153-8.103h2.508c1.368 0 2.469-1.096 2.469-2.453 0-1.357-1.101-2.455-2.469-2.455h-2.508c-1.365 0-2.469 1.098-2.469 2.455s1.104 2.453 2.469 2.453zm4.978 6.592c0-1.355-1.101-2.453-2.469-2.453h-2.508c-1.365 0-2.469 1.098-2.469 2.453 0 1.359 1.104 2.459 2.469 2.459h2.508c1.368 0 2.469-1.1 2.469-2.459zm0 0" fill="#3A434E" sketch:type="MSShapeGroup"/></g></svg>
